X: 1477
T: George Large's 2nd Stepdance
B: australian traditional tunes wiki
M:C
L:1/8
R: Step Dance
Q: 1/4=100
K:D
V:1 
|:"D"DF AF DF AF|"G"G2B2G2B2|"D"DF AF DF AF|"A7"E2EDE2GE|
"D"DF AF DF AF|"G"G2B2G2B2|"A7"A2cB AG FE|"D"D2dcd4:|
|:"A7"e2Ace2e2|"D"f2Adf2f2|"A7"e2Ac e2ec|"G"d2cB"A7"A2GA|
"G"B2GA Bcd2|"D"A2FGA2FA|"G"Bc dB "A7"AG FE|"D"D2dcd4:|
% abcbook-tune_id 6342d53a8d29941f44ca40f0


% abcbook-boost 0
% abcbook-tablature 
% abcbook-transpose 
% abcbook-lastupdated 1665324367021
% abcbook-soundfonts 
% abcbook-repeats 1
% NFF Book 2007

